X: 1
T: Lady Charlotte Primrose
C: John Gow
D: as played by Theresa Morrison, "Traditional Fiddle Music of CB Vol 3 Bras d'Or"
Z: T. Traub 7-31-2012
K: D
M: 4/4
L: 1/8
|: A |\
"D"d2 A/B/c d/c/B/A/ d<f | "D"d2 A/B/c "A7"d<F E>A |\
"D"d2 A/B/c d/c/B/A/ d<f | "G"B/c/d G>B "A7"A>F E :|
|: G |\
"D"F>D D/D/D A<F A<f | "D"F>D D/D/D "A7"A>F E>G |\
"D"F>D D/D/D A<F A<d |[1 "G"B/c/d G>B "A7"A>F E :|
|[2 "D"f>d e>f "A7"d>F E |]
